static/fa/svgs/solid/cloud-showers-water.svg

<svg xmlns="http://www.w3.org/2000/svg" viewBox="0 0 576 512"><!--! Font Awesome Free 6.1.1 by @fontawesome - https://fontawesome.com License - https://fontawesome.com/license/free (Icons: CC BY 4.0, Fonts: SIL OFL 1.1, Code: MIT License) Copyright 2022 Fonticons, Inc.--><path d="M223.1 0c39.5 0 72.8 22.82 88.1 55.7C325.7 41.07 345.8 32 368 32c38.7 0 70.1 27.48 78.4 64h1.6c35.3 0 64 28.7 64 64s-28.7 64-64 64H127.1c-34.45 0-64-28.7-64-64s29.55-64 64-64c0-53.02 43-96 96-96zM92.58 372.3c-6.82 11.4-21.56 15.1-32.93 8.3-11.36-6.8-15.05-21.6-8.23-32.9l48-80c6.78-11.4 20.68-15.1 32.88-8.3 11.4 6.8 15.1 20.7 8.3 32.9l-48.02 80zM468.3 259.4c11.4 6.8 15.1 20.7 8.3 32.9l-48 80c-6.8 11.4-21.6 15.1-32.9 8.3-11.4-6.8-15.1-21.6-8.3-32.9l48-80c6.8-11.4 20.7-15.1 32.9-8.3zM204.6 372.3c-6.8 11.4-21.6 15.1-32.9 8.3-11.4-6.8-15.1-21.6-8.3-32.9l48-80c6.8-11.4 20.7-15.1 32.9-8.3 11.4 6.8 15.1 20.7 8.3 32.9l-48 80zm151.7-112.9c11.4 6.8 15.1 20.7 8.3 32.9l-48 80c-6.8 11.4-21.6 15.1-32.9 8.3-11.4-6.8-15.1-21.6-8.3-32.9l48-80c6.8-11.4 20.7-15.1 32.9-8.3zM384 448c26.9 0 55.4-10.8 77.4-26.1h.1c11.9-8.5 28-7.8 39.2 1.7 14.3 11.9 32.5 21 50.6 25.2 17.2 4 27.9 21.3 23.9 38.5s-22.1 27.9-38.5 23.9c-24.5-5.8-44.8-16.6-58.2-25-29 15.5-61.5 25.8-94.5 25.8-31.9 0-60.6-9.9-80.4-18.9-5.9-2.6-11.1-5.3-15.6-7.7-4.5 2.4-9.7 5.1-15.6 7.7-19.8 9-48.5 18.9-80.4 18.9-33.9 0-65.5-10.3-94.5-25.8-13.38 8.4-33.71 19.2-58.23 25-17.21 4-34.417-6.7-38.428-23.9-4.011-17.2 6.69-34.5 23.898-38.5 18.1-4.2 36.22-13.3 50.57-25.2 11.15-9.5 27.29-10.2 39.19-1.7h.1c22.1 15.3 50.5 26.1 77.4 26.1 27.5 0 55-10.6 77.5-26.1 11.1-7.9 25.9-7.9 37 0 21.6 15.5 50 26.1 77.5 26.1z"/></svg>

<svg xmlns="http://www.w3.org/2000/svg" viewBox="0 0 576 512"><!--! Font Awesome Free 6.1.1 by @fontawesome - https://fontawesome.com License - https://fontawesome.com/license/free (Icons: CC BY 4.0, Fonts: SIL OFL 1.1, Code: MIT License) Copyright 2022 Fonticons, Inc. --><path d="M223.1 0C262.6 0 295.9 22.82 311.2 55.7C325.7 41.07 345.8 32 368 32C406.7 32 438.1 59.48 446.4 96H448C483.3 96 512 124.7 512 160C512 195.3 483.3 224 448 224H127.1C92.65 224 63.1 195.3 63.1 160C63.1 124.7 92.65 96 127.1 96C127.1 42.98 170.1 0 223.1 0zM92.58 372.3C85.76 383.7 71.02 387.4 59.65 380.6C48.29 373.8 44.6 359 51.42 347.7L99.42 267.7C106.2 256.3 120.1 252.6 132.3 259.4C143.7 266.2 147.4 280.1 140.6 292.3L92.58 372.3zM468.3 259.4C479.7 266.2 483.4 280.1 476.6 292.3L428.6 372.3C421.8 383.7 407 387.4 395.7 380.6C384.3 373.8 380.6 359 387.4 347.7L435.4 267.7C442.2 256.3 456.1 252.6 468.3 259.4V259.4zM204.6 372.3C197.8 383.7 183 387.4 171.7 380.6C160.3 373.8 156.6 359 163.4 347.7L211.4 267.7C218.2 256.3 232.1 252.6 244.3 259.4C255.7 266.2 259.4 280.1 252.6 292.3L204.6 372.3zM356.3 259.4C367.7 266.2 371.4 280.1 364.6 292.3L316.6 372.3C309.8 383.7 295 387.4 283.7 380.6C272.3 373.8 268.6 359 275.4 347.7L323.4 267.7C330.2 256.3 344.1 252.6 356.3 259.4V259.4zM384 448C410.9 448 439.4 437.2 461.4 421.9L461.5 421.9C473.4 413.4 489.5 414.1 500.7 423.6C515 435.5 533.2 444.6 551.3 448.8C568.5 452.8 579.2 470.1 575.2 487.3C571.2 504.5 553.1 515.2 536.7 511.2C512.2 505.4 491.9 494.6 478.5 486.2C449.5 501.7 417 512 384 512C352.1 512 323.4 502.1 303.6 493.1C297.7 490.5 292.5 487.8 288 485.4C283.5 487.8 278.3 490.5 272.4 493.1C252.6 502.1 223.9 512 192 512C158.1 512 126.5 501.7 97.5 486.2C84.12 494.6 63.79 505.4 39.27 511.2C22.06 515.2 4.853 504.5 .8422 487.3C-3.169 470.1 7.532 452.8 24.74 448.8C42.84 444.6 60.96 435.5 75.31 423.6C86.46 414.1 102.6 413.4 114.5 421.9L114.6 421.9C136.7 437.2 165.1 448 192 448C219.5 448 247 437.4 269.5 421.9C280.6 414 295.4 414 306.5 421.9C328.1 437.4 356.5 448 384 448H384z"/></svg>
